X:4128010
T:THE BLUE CLOUD
C:Adam Quinn/Arr. PM Robert Hoogenhout
H:
B: 
O:Arranged by Kevin Fraser
Z:Kevin Fraser
Q:3/8=104
M:12/8
L:1/8
K:HP
R:Jig
U: R = ///
U: r = //
U: V = !accent!
U:z="@ "
V:M gstem=up stem=down name="Melody" sname="Melody"
V:H gstem=up stem=down name="Harmony" sname="Harmony"
V:C gstem=up stem=down name="C-Harmony" sname=C-Harmony"
V:S gstem=up stem=down dyn=up stafflines=1 clef=perc middle=G name="Snare" sname="Snare" sname="Snare"
V:B gstem=up stem=down clef=none dyn=up name="Bass" sname="Bass"
V:T gstem=up stem=down clef=none dyn=up name="Tenor" sname="Tenor"
V:BB gstem=up stem=down name="Brass Bass" sname="ABCD-C" transpose=-1  octave=-1 clef=bass
V:BC gstem=up stem=down name="Brass Chord" sname="ABCD-D" transpose=-1
V:BD gstem=up stem=down name="Brass Chord 2" sname="ABCD-B" transpose=-1
V:P gstem=up stem=down name="Piano" octave=-1
I:MIDI=program 110
%%MIDI gracedivider 4
%%MIDI gchord
%%MIDI beatstring 
% %alignbars 80
%%landscape
I:linebreak $
% %score {M (BS)}
%%MIDI program 109 #bagpipes
%%MIDI vol 100
%%EPipes[SP=20,LP=225,MA=Y]
[V:M] [|:{g}A{d}A{e}A- {g}c2A- {g}c2d {g}c{d}A{e}A|{g}G{d}G{f}G {g}cd{c}d {g}edc {g}dcB|\
["2nd ending 6th part" {g}A{d}A{e}A- {g}c2A- {g}c2d {g}c{d}A{e}A|{g}G{d}G{e}G {g}efe {g}c{d}c{e}c {G}A2[1e[2B:| $
%%EPipes[LP=224]
[V:M] [|:{g}ce{A}e {g}efe {gf}g2f {g}ed(B|c2)(B  c2)A {g}G{d}G{e}G {g}BAG|\
{g}ce{A}e {g}efe {gf}g2f {g}edB|{g}G{d}G{e}G {g}efe {g}c{d}c{e}c {G}A2B:|] 
%%EPipes[LP=242]
[V:M] [|{g}G{d}G{e}G {d}BG{d}B {g}dBd {g}fed|({g}B-c)>a {g}A{d}A{e}A {GAG}A2G {g}cB{G}A|\
{g}G{d}G{e}G {d}BG{d}B {g}dBd {g}fed|["2nd ending of 4th part"{g}ce{A}e {g}efa c{d}c{e}c {g}A2e]| $
[V:M] | {g}G{d}G{e}G {d}BG{d}B {g}dBd {g}fed|{g}({g}B-c)>a {g}A{d}A{e}A {GAG}A2G {g}cB{G}A|\
{g}G{d}G{e}G {d}BG{d}B {g}dBd {g}fed|{g}ce{A}e {g}efa B2c {g}cea|] $
[V:M] [|({g}B-c)>a {AGAG}A3 {g}c{d}c{f}c {g}edc|{g}BG{d}B {g}BG{d}B {g}B{d}B{e}B {g}edc|\
{g}({g}B-c)>a {AGAG}A3 {g}c{d}c{f}c {g}edc|[1"See 3rd part for 2nd ending"{g}ce{A}e {g}efa c{d}c{f}c {g}cea:|] $
[V:M] [|:{g}G{d}G{e}G {gf}g2e {g}dBd {g}GBd|{g}A{d}A{e}A {ag}a2f {g}ef{e}f {g}fga|\
G{d}G{e}G {gf}g2e {g}dBd {g}GBd|{g}ce{A}e {g}efa c{d}c{e}c {g}cea:|] $
[V:M] [|:({g}B-c)>a ({g}B-c)>a ({g}B-c)>a cBA|{g}cd{c}d {g}dcd {g}dcd {g}dcB|\
[1 "See 1st part for 2nd ending" {g}({g}B-c)>a ({g}B-c)>a ({g}B-c)>a cBA|{g}ce{A}e {g}efa B-c2 {g}cea| $
W:Note the repeats and parts without (minor 2nd endings)


